app/dist/common/images/umm-al-qura-cement-co.svg

<svg height="18" viewBox="0 0 18 18" width="18" xmlns="http://www.w3.org/2000/svg"><path d="m0 0h18v18h-18z" fill="#f0f3fa"/><path d="m3 9.98v1.02l7-1.98v-1.02z" fill="#5e5b59"/><path d="m3 8.56v.77l7-1.9v-.76l-7 1.9z" fill="#b98b1a"/><path d="m3 7.26v.6l7-2.06v-.6zm7-2.26v.8l4 1.63v-.82z" fill="#5e5b59"/><path d="m10 6.33v1.1l4 1.57v-1.1z" fill="#b98b1a"/><path d="m10 7.67v1.35l4 1.65v-1.38zm0 2v1.68l4 1.65v-1.7z" fill="#5e5b59"/></svg>

<!-- by TradingView --><svg width="18" height="18" viewBox="0 0 18 18" xmlns="http://www.w3.org/2000/svg"><path fill="#F0F3FA" d="M0 0h18v18H0z"/><path d="M3 9.98V11l7-1.98V8L3 9.98Z" fill="#5E5B59"/><path d="M3 8.56v.77l7-1.9v-.76l-7 1.9Z" fill="#B98B1A"/><path d="M3 7.26v.6l7-2.06v-.6L3 7.26ZM10 5v.8l4 1.63v-.82L10 5Z" fill="#5E5B59"/><path d="M10 6.33v1.1L14 9V7.9l-4-1.57Z" fill="#B98B1A"/><path d="M10 7.67v1.35l4 1.65V9.29l-4-1.62ZM10 9.67v1.68L14 13v-1.7l-4-1.63Z" fill="#5E5B59"/></svg>
